P3
# C2PA synthetic regression fixture; detector hint only, not a signed manifest.
16 16
255
0 0 220 17 0 220 34 0 220 51 0 220 68 0 35 85 0 35 102 0 35 119 0 35 136 0 220 153 0 220 170 0 220 187 0 220 204 0 35 221 0 35 238 0 35 255 0 35
0 17 220 17 17 220 34 17 220 51 17 220 68 17 35 85 17 35 102 17 35 119 17 35 136 17 220 153 17 220 170 17 220 187 17 220 204 17 35 221 17 35 238 17 35 255 17 35
0 34 220 17 34 220 34 34 220 51 34 220 68 34 35 85 34 35 102 34 35 119 34 35 136 34 220 153 34 220 170 34 220 187 34 220 204 34 35 221 34 35 238 34 35 255 34 35
0 51 220 17 51 220 34 51 220 51 51 220 68 51 35 85 51 35 102 51 35 119 51 35 136 51 220 153 51 220 170 51 220 187 51 220 204 51 35 221 51 35 238 51 35 255 51 35
0 68 35 17 68 35 34 68 35 51 68 35 68 68 220 85 68 220 102 68 220 119 68 220 136 68 35 153 68 35 170 68 35 187 68 35 204 68 220 221 68 220 238 68 220 255 68 220
0 85 35 17 85 35 34 85 35 51 85 35 68 85 220 85 85 220 102 85 220 119 85 220 136 85 35 153 85 35 170 85 35 187 85 35 204 85 220 221 85 220 238 85 220 255 85 220
0 102 35 17 102 35 34 102 35 51 102 35 68 102 220 85 102 220 102 102 220 119 102 220 136 102 35 153 102 35 170 102 35 187 102 35 204 102 220 221 102 220 238 102 220 255 102 220
0 119 35 17 119 35 34 119 35 51 119 35 68 119 220 85 119 220 102 119 220 119 119 220 136 119 35 153 119 35 170 119 35 187 119 35 204 119 220 221 119 220 238 119 220 255 119 220
0 136 220 17 136 220 34 136 220 51 136 220 68 136 35 85 136 35 102 136 35 119 136 35 136 136 220 153 136 220 170 136 220 187 136 220 204 136 35 221 136 35 238 136 35 255 136 35
0 153 220 17 153 220 34 153 220 51 153 220 68 153 35 85 153 35 102 153 35 119 153 35 136 153 220 153 153 220 170 153 220 187 153 220 204 153 35 221 153 35 238 153 35 255 153 35
0 170 220 17 170 220 34 170 220 51 170 220 68 170 35 85 170 35 102 170 35 119 170 35 136 170 220 153 170 220 170 170 220 187 170 220 204 170 35 221 170 35 238 170 35 255 170 35
0 187 220 17 187 220 34 187 220 51 187 220 68 187 35 85 187 35 102 187 35 119 187 35 136 187 220 153 187 220 170 187 220 187 187 220 204 187 35 221 187 35 238 187 35 255 187 35
0 204 35 17 204 35 34 204 35 51 204 35 68 204 220 85 204 220 102 204 220 119 204 220 136 204 35 153 204 35 170 204 35 187 204 35 204 204 220 221 204 220 238 204 220 255 204 220
0 221 35 17 221 35 34 221 35 51 221 35 68 221 220 85 221 220 102 221 220 119 221 220 136 221 35 153 221 35 170 221 35 187 221 35 204 221 220 221 221 220 238 221 220 255 221 220
0 238 35 17 238 35 34 238 35 51 238 35 68 238 220 85 238 220 102 238 220 119 238 220 136 238 35 153 238 35 170 238 35 187 238 35 204 238 220 221 238 220 238 238 220 255 238 220
0 255 35 17 255 35 34 255 35 51 255 35 68 255 220 85 255 220 102 255 220 119 255 220 136 255 35 153 255 35 170 255 35 187 255 35 204 255 220 221 255 220 238 255 220 255 255 220
